icons/AdobeIllustratorColor.svg

<svg width="16" height="16" viewBox="0 0 16 16" fill="none" xmlns="http://www.w3.org/2000/svg">
<g clip-path="url(#clip0_2180_4606)">
<path d="M2.83333 0.200012H13.1667C14.7333 0.200012 16 1.46668 16 3.03335V12.9667C16 14.5333 14.7333 15.8 13.1667 15.8H2.83333C1.26667 15.8 0 14.5333 0 12.9667V3.03335C0 1.46668 1.26667 0.200012 2.83333 0.200012Z" fill="#330000"/>
<path d="M7.75321 9.56003H5.27321L4.76655 11.1267C4.75321 11.1867 4.69988 11.2267 4.63988 11.22H3.38655C3.31321 11.22 3.29321 11.18 3.31321 11.1L5.45988 4.92003C5.47988 4.85336 5.49988 4.78003 5.52655 4.70003C5.55321 4.56003 5.56655 4.41336 5.56655 4.26669C5.55988 4.23336 5.58655 4.20003 5.61988 4.19336C5.62655 4.19336 5.63321 4.19336 5.63988 4.19336H7.34655C7.39988 4.19336 7.42655 4.21336 7.43321 4.24669L9.86655 11.1134C9.88655 11.1867 9.86655 11.22 9.79988 11.22H8.40655C8.35988 11.2267 8.31321 11.1934 8.29988 11.1467L7.75321 9.56003ZM5.65988 8.20669H7.35321C7.31321 8.06669 7.25988 7.90003 7.19988 7.72669C7.13988 7.54669 7.07988 7.35336 7.01988 7.15336C6.95321 6.94669 6.89321 6.74669 6.82655 6.54003C6.75988 6.33336 6.69988 6.14003 6.64655 5.94669C6.59321 5.76003 6.54655 5.58669 6.49988 5.42669H6.48655C6.42655 5.71336 6.35321 6.00003 6.25988 6.28669C6.15988 6.60669 6.05988 6.94003 5.95321 7.27336C5.85988 7.61336 5.75988 7.92669 5.65988 8.20669Z" fill="#FF9A00"/>
<path d="M11.3199 5.33331C11.0999 5.33997 10.8866 5.25331 10.7266 5.09997C10.5732 4.93331 10.4932 4.71331 10.4999 4.48664C10.4932 4.25997 10.5799 4.04664 10.7399 3.89331C10.8999 3.73997 11.1132 3.65997 11.3332 3.65997C11.5932 3.65997 11.7932 3.73997 11.9399 3.89331C12.0866 4.05331 12.1666 4.26664 12.1599 4.48664C12.1666 4.71331 12.0866 4.93331 11.9266 5.09997C11.7732 5.25997 11.5466 5.34664 11.3199 5.33331ZM10.5732 11.12V5.98664C10.5732 5.91997 10.5999 5.89331 10.6599 5.89331H11.9799C12.0399 5.89331 12.0666 5.92664 12.0666 5.98664V11.12C12.0666 11.1933 12.0399 11.2266 11.9799 11.2266H10.6732C10.6066 11.2266 10.5732 11.1866 10.5732 11.12Z" fill="#FF9A00"/>
</g>
<defs>
<clipPath id="clip0_2180_4606">
<rect width="16" height="16" fill="white"/>
</clipPath>
</defs>
</svg>

<svg width="16" height="16" fill="none" xmlns="http://www.w3.org/2000/svg"><g clip-path="url(#a)"><path d="M2.833.2h10.334A2.831 2.831 0 0 1 16 3.033v9.934a2.831 2.831 0 0 1-2.833 2.833H2.833A2.831 2.831 0 0 1 0 12.967V3.033A2.831 2.831 0 0 1 2.833.2z" fill="#300"/><path d="M7.753 9.56h-2.48l-.506 1.567a.117.117 0 0 1-.127.093H3.387c-.074 0-.094-.04-.074-.12L5.46 4.92c.02-.067.04-.14.067-.22.026-.14.04-.287.04-.433-.007-.034.02-.067.053-.074h1.727c.053 0 .08.02.086.054l2.434 6.866c.02.074 0 .107-.067.107H8.407c-.047.007-.094-.027-.107-.073L7.753 9.56zM5.66 8.207h1.693a9.474 9.474 0 0 0-.153-.48c-.06-.18-.12-.374-.18-.574-.067-.206-.127-.406-.193-.613-.067-.207-.127-.4-.18-.593-.054-.187-.1-.36-.147-.52h-.013c-.06.286-.134.573-.227.86-.1.32-.2.653-.307.986-.093.34-.193.654-.293.934zM11.32 5.333a.825.825 0 0 1-.593-.233.866.866 0 0 1-.227-.613.784.784 0 0 1 .24-.594.854.854 0 0 1 .593-.233c.26 0 .46.08.607.233.147.16.227.374.22.594a.843.843 0 0 1-.233.613.784.784 0 0 1-.607.233zm-.747 5.787V5.987c0-.067.027-.094.087-.094h1.32c.06 0 .087.034.087.094v5.133c0 .073-.027.107-.087.107h-1.307c-.066 0-.1-.04-.1-.107z" fill="#FF9A00"/></g><defs><clipPath id="a"><path fill="#fff" d="M0 0h16v16H0z"/></clipPath></defs></svg>
